X: 53
T: Bleking efter Carl Aron Hakberg
T: (SvL Västergötland 53)
S: efter Carl Aron Hakberg
O: Skövde, Västergötland
B: Svenska Låtar Västergötland
Z: Åke Persson (2009-04-17) efter not i Svenska Låtar
R: Bleking
L: 1/8
M: 3/4
K: D
[A,F]>A GE ED | cA/c/ (c/B/)A/G/ TFD | [A,F]>A GE ED | cA/c/ ed d2 :|:
[M:4/4] [DA]f/f/ Tfe/f/ g/f/e/f/ dd |[M:3/4] (e/f/)e/d/ (c/d/c/)B/ AA | 
[M:4/4] [DA]f/f/ Tfe/f/ g/f/e/f/ dd |[M:3/4] e/f/e/d/ c[dF] [d2F2] :|

